X:502
T:Polska efter Nils Andersson
T:(SvL Jämtland 502)
R:Polska
S:Nils Andersson
O:Hammerdal, Jämtland
B:Svenska Låtar Jämtland
M:3/4
L:1/8
K:Gm
v[dD]>g d2 c2|B>A [GG,]A (3BAG|A>G ^FG (A/B/)A/F/|G^F GA Bc|
[dD]>g d2 c2|B>A [GG,]A (3BAG|A>G ^FG A/B/A/F/|Az/G/ [GB,]4:|
|:dg (3g(ag) (3g(ag)|ga (3a(=ba ^f)d|dA (3B(dB A)[GG,]|^FG (3A(=BA) FD|
dg (3g(ag) (3g(ag)|ga (3a(=ba ^f)d|dA (3B(dB A)^F|(D^F) [GG,]4:|

